symbols/web/perm_contact_calendar/materialsymbolssharp/perm_contact_calendar_wght200gradN25_20px.svg

<svg xmlns="http://www.w3.org/2000/svg" height="20" width="20"><path d="M5.062 16.521h9.876v-.146q-1.063-.979-2.323-1.479-1.261-.5-2.615-.5-1.333 0-2.583.469-1.25.468-2.355 1.447Zm-.77-.646q1.125-1.083 2.583-1.708 1.458-.625 3.125-.625 1.688 0 3.135.625 1.448.625 2.573 1.708V5.208H4.292ZM10 11.438q-1.042 0-1.75-.73-.708-.729-.708-1.77 0-1.021.718-1.74.719-.719 1.74-.719 1.042 0 1.771.709.729.708.729 1.75 0 1.041-.729 1.77-.729.73-1.771.73Zm.021-.855q.646 0 1.135-.489.49-.49.49-1.156 0-.646-.49-1.125-.489-.48-1.156-.48-.646 0-1.125.48-.479.479-.479 1.145 0 .646.479 1.136.479.489 1.146.489Zm-6.563 6.792V4.354h2.73V2.417h.916v1.937h5.854V2.417h.854v1.937h2.73v13.021ZM10 8.938Zm-4.938 7.583H14.938Z"/></svg>

<svg xmlns="http://www.w3.org/2000/svg" height="20" width="20"><path d="M5.062 16.521H14.938V16.375Q13.875 15.396 12.615 14.896Q11.354 14.396 10 14.396Q8.667 14.396 7.417 14.865Q6.167 15.333 5.062 16.312ZM4.292 15.875Q5.417 14.792 6.875 14.167Q8.333 13.542 10 13.542Q11.688 13.542 13.135 14.167Q14.583 14.792 15.708 15.875V5.208H4.292ZM10 11.438Q8.958 11.438 8.25 10.708Q7.542 9.979 7.542 8.938Q7.542 7.917 8.26 7.198Q8.979 6.479 10 6.479Q11.042 6.479 11.771 7.188Q12.5 7.896 12.5 8.938Q12.5 9.979 11.771 10.708Q11.042 11.438 10 11.438ZM10.021 10.583Q10.667 10.583 11.156 10.094Q11.646 9.604 11.646 8.938Q11.646 8.292 11.156 7.813Q10.667 7.333 10 7.333Q9.354 7.333 8.875 7.813Q8.396 8.292 8.396 8.958Q8.396 9.604 8.875 10.094Q9.354 10.583 10.021 10.583ZM3.458 17.375V4.354H6.188V2.417H7.104V4.354H12.958V2.417H13.812V4.354H16.542V17.375ZM10 8.938Q10 8.938 10 8.938Q10 8.938 10 8.938Q10 8.938 10 8.938Q10 8.938 10 8.938Q10 8.938 10 8.938Q10 8.938 10 8.938Q10 8.938 10 8.938Q10 8.938 10 8.938ZM5.062 16.521Q6.167 16.521 7.417 16.521Q8.667 16.521 10 16.521Q11.354 16.521 12.615 16.521Q13.875 16.521 14.938 16.521Z"/></svg>
